X: 17
T: Dusty Windowsills
C: Johnny Harling
Z: ceili
S: https://thesession.org/tunes/29#setting49897
R: jig
M: 6/8
L: 1/8
K: Ador
|:"Am"A2B cBA|"Am"eAB cBA|"G"G/G/GG EGG|"G"DGG EGG|
"Am"A2B cBA|"Am"e/e/ed efg|"G"age dBG|"G"ABA "Am"A3:|
|:"Am"a/a/aa age|"G"dBd g/g/gg|"G"gag "C"gfe|"G"dBA GAG|
"C"EGG "G"DGG|"C"EGG "Am"ABc|"G"Bed BAG|"G"ABA "Am"A3:|
|:"Am"A/A/AA gAf|"Am"A/A/AA "Em"eAd|"G"G/G/GG eGd|"G"G/G/GG "Em"edB|
"Am"A/A/AA gAf|"Am"A/A/AA "Em"efg|"Am"age "G"dBG|"Am"ABA A3:|

